material/.icons/material/account-group-outline.svg

<svg xmlns="http://www.w3.org/2000/svg" viewBox="0 0 24 24"><path d="M12 5a3.5 3.5 0 00-3.5 3.5A3.5 3.5 0 0012 12a3.5 3.5 0 003.5-3.5A3.5 3.5 0 0012 5m0 2a1.5 1.5 0 011.5 1.5A1.5 1.5 0 0112 10a1.5 1.5 0 01-1.5-1.5A1.5 1.5 0 0112 7M5.5 8A2.5 2.5 0 003 10.5c0 .94.53 1.75 1.29 2.18.36.2.77.32 1.21.32.44 0 .85-.12 1.21-.32.37-.21.68-.51.91-.87A5.42 5.42 0 016.5 8.5v-.28c-.3-.14-.64-.22-1-.22m13 0c-.36 0-.7.08-1 .22v.28c0 1.2-.39 2.36-1.12 3.31.12.19.25.34.4.49a2.482 2.482 0 001.72.7c.44 0 .85-.12 1.21-.32.76-.43 1.29-1.24 1.29-2.18A2.5 2.5 0 0018.5 8M12 14c-2.34 0-7 1.17-7 3.5V19h14v-1.5c0-2.33-4.66-3.5-7-3.5m-7.29.55C2.78 14.78 0 15.76 0 17.5V19h3v-1.93c0-1.01.69-1.85 1.71-2.52m14.58 0c1.02.67 1.71 1.51 1.71 2.52V19h3v-1.5c0-1.74-2.78-2.72-4.71-2.95M12 16c1.53 0 3.24.5 4.23 1H7.77c.99-.5 2.7-1 4.23-1z"/></svg>

<?xml version="1.0" encoding="UTF-8"?><!DOCTYPE svg PUBLIC "-//W3C//DTD SVG 1.1//EN" "http://www.w3.org/Graphics/SVG/1.1/DTD/svg11.dtd"><svg xmlns="http://www.w3.org/2000/svg" xmlns:xlink="http://www.w3.org/1999/xlink" version="1.1" id="mdi-account-group-outline" width="24" height="24" viewBox="0 0 24 24"><path d="M12,5A3.5,3.5 0 0,0 8.5,8.5A3.5,3.5 0 0,0 12,12A3.5,3.5 0 0,0 15.5,8.5A3.5,3.5 0 0,0 12,5M12,7A1.5,1.5 0 0,1 13.5,8.5A1.5,1.5 0 0,1 12,10A1.5,1.5 0 0,1 10.5,8.5A1.5,1.5 0 0,1 12,7M5.5,8A2.5,2.5 0 0,0 3,10.5C3,11.44 3.53,12.25 4.29,12.68C4.65,12.88 5.06,13 5.5,13C5.94,13 6.35,12.88 6.71,12.68C7.08,12.47 7.39,12.17 7.62,11.81C6.89,10.86 6.5,9.7 6.5,8.5C6.5,8.41 6.5,8.31 6.5,8.22C6.2,8.08 5.86,8 5.5,8M18.5,8C18.14,8 17.8,8.08 17.5,8.22C17.5,8.31 17.5,8.41 17.5,8.5C17.5,9.7 17.11,10.86 16.38,11.81C16.5,12 16.63,12.15 16.78,12.3C16.94,12.45 17.1,12.58 17.29,12.68C17.65,12.88 18.06,13 18.5,13C18.94,13 19.35,12.88 19.71,12.68C20.47,12.25 21,11.44 21,10.5A2.5,2.5 0 0,0 18.5,8M12,14C9.66,14 5,15.17 5,17.5V19H19V17.5C19,15.17 14.34,14 12,14M4.71,14.55C2.78,14.78 0,15.76 0,17.5V19H3V17.07C3,16.06 3.69,15.22 4.71,14.55M19.29,14.55C20.31,15.22 21,16.06 21,17.07V19H24V17.5C24,15.76 21.22,14.78 19.29,14.55M12,16C13.53,16 15.24,16.5 16.23,17H7.77C8.76,16.5 10.47,16 12,16Z" /></svg>
